app/ui/static/images/icons/solid/arrow-top-right-on-square.svg

<svg width="20" height="20" viewBox="0 0 20 20" fill="none" xmlns="http://www.w3.org/2000/svg">
<path fill-rule="evenodd" clip-rule="evenodd" d="M4.25 5.5C3.83579 5.5 3.5 5.83579 3.5 6.25V14.75C3.5 15.1642 3.83579 15.5 4.25 15.5H12.75C13.1642 15.5 13.5 15.1642 13.5 14.75V10.75C13.5 10.3358 13.8358 10 14.25 10C14.6642 10 15 10.3358 15 10.75V14.75C15 15.9926 13.9926 17 12.75 17H4.25C3.00736 17 2 15.9926 2 14.75V6.25C2 5.00736 3.00736 4 4.25 4H9.25C9.66421 4 10 4.33579 10 4.75C10 5.16421 9.66421 5.5 9.25 5.5H4.25Z" fill="#0F172A"/>
<path fill-rule="evenodd" clip-rule="evenodd" d="M6.19385 12.7532C6.47175 13.0603 6.94603 13.0841 7.25319 12.8062L16.5 4.43999V7.25C16.5 7.66421 16.8358 8 17.25 8C17.6642 8 18 7.66421 18 7.25V2.75C18 2.33579 17.6642 2 17.25 2H12.75C12.3358 2 12 2.33579 12 2.75C12 3.16421 12.3358 3.5 12.75 3.5H15.3032L6.24682 11.6938C5.93966 11.9717 5.91595 12.446 6.19385 12.7532Z" fill="#0F172A"/>
</svg>

<svg xmlns="http://www.w3.org/2000/svg" viewBox="0 0 20 20" fill="currentColor" aria-hidden="true">
  <path fill-rule="evenodd" d="M4.25 5.5a.75.75 0 00-.75.75v8.5c0 .414.336.75.75.75h8.5a.75.75 0 00.75-.75v-4a.75.75 0 011.5 0v4A2.25 2.25 0 0112.75 17h-8.5A2.25 2.25 0 012 14.75v-8.5A2.25 2.25 0 014.25 4h5a.75.75 0 010 1.5h-5z" clip-rule="evenodd"/>
  <path fill-rule="evenodd" d="M6.194 12.753a.75.75 0 001.06.053L16.5 4.44v2.81a.75.75 0 001.5 0v-4.5a.75.75 0 00-.75-.75h-4.5a.75.75 0 000 1.5h2.553l-9.056 8.194a.75.75 0 00-.053 1.06z" clip-rule="evenodd"/>
</svg>
